!!!!SEGMENT: T725_Cop-w43p37-39m207-219.krn
!!!COM: Copland, Aaron
!!!OTL: single movement work
!!!OMD:
!!!AGN: Orchestral
!!!AGN-sub: Symphonic
!!!CNT: American
!!!ODT: 1967
!!!OPR: Inscape for Orchestra
!!!filename: T725_Cop-w43p37-39m207-219.krn
**kern	**dynam	**kern	**dynam	**kern	**dynam	**kern	**dynam	**kern	**dynam	**kern	**dynam	**kern	**dynam	**kern	**dynam	**kern	**dynam	**kern	**dynam	**kern	**dynam	**kern	**dynam	**kern	**dynam
*grp:A	*	*grp:B	*	*grp:B	*	*grp:B	*	*grp:B	*	*grp:B	*	*grp:B	*	*grp:B	*	*grp:A	*	*grp:B	*	*grp:B	*	*grp:A	*	*grp:B	*
*part13	*	*part12	*	*part11	*	*part10	*	*part9	*	*part8	*	*part7	*	*part6	*	*part5	*	*part4	*	*part3	*	*part2	*	*part1	*
*staff13	*	*staff12	*	*staff11	*	*staff10	*	*staff9	*	*staff8	*	*staff7	*	*staff6	*	*staff5	*	*staff4	*	*staff3	*	*staff2	*	*staff1	*
*ICstr	*	*ICstr	*	*ICstr	*	*ICstr	*	*ICstr	*	*ICstr	*	*ICstr	*	*ICstr	*	*ICstr	*	*ICidio	*	*ICww	*	*ICww	*	*ICww	*
*Icbass	*	*Icello	*	*Iviola	*	*Ivioln	*	*Ivioln	*	*Ivioln	*	*Ivioln	*	*Ivioln	*	*Ivioln	*	*Ivibra	*	*Ioboe	*	*Iflt	*	*Ipicco	*
*I"Contrabass	*	*I"Violoncello	*	*I"Viola	*	*I"Violin II	*	*I"Violin I	*	*I"Violin I	*	*I"Violin I	*	*I"Violin I	*	*I"Solo Violin	*	*I"Vibraphone	*	*I"Oboe 1	*	*I"Flute 1, 2	*	*I"Piccolo	*
*I'cb	*	*I'vc	*	*I'vla	*	*I'vn	*	*I'vn	*	*I'vn	*	*I'vn	*	*I'vn	*	*I'vn	*	*I'vib	*	*I'ob	*	*I'fl	*	*I'picc	*
*clefF4	*	*clefF4	*	*clefC3	*	*clefG2	*	*clefG2	*	*clefG2	*	*clefG2	*	*clefG2	*	*clefG2	*	*clefG2	*	*clefG2	*	*clefG2	*	*clefG2	*
*ITrd7c12	*	*	*	*	*	*	*	*	*	*	*	*	*	*	*	*	*	*	*	*	*	*	*	*ITrd-7c-12	*
*k[]	*	*k[]	*	*k[]	*	*k[]	*	*k[]	*	*k[]	*	*k[]	*	*k[]	*	*k[]	*	*k[]	*	*k[]	*	*k[]	*	*k[]	*
*C:	*	*C:	*	*C:	*	*C:	*	*C:	*	*C:	*	*C:	*	*C:	*	*C:	*	*C:	*	*C:	*	*C:	*	*C:	*
!!LO:TX:omd:tempo:a:t=Slightly slower\n[quarter]=69
*M4/4	*	*M4/4	*	*M4/4	*	*M4/4	*	*M4/4	*	*M4/4	*	*M4/4	*	*M4/4	*	*M4/4	*	*M4/4	*	*M4/4	*	*M4/4	*	*M4/4	*
*met(c)	*	*met(c)	*	*met(c)	*	*met(c)	*	*met(c)	*	*met(c)	*	*met(c)	*	*met(c)	*	*met(c)	*	*met(c)	*	*met(c)	*	*met(c)	*	*met(c)	*
*MM69	*	*MM69	*	*MM69	*	*MM69	*	*MM69	*	*MM69	*	*MM69	*	*MM69	*	*MM69	*	*MM69	*	*MM69	*	*MM69	*	*MM69	*
=207	=207	=207	=207	=207	=207	=207	=207	=207	=207	=207	=207	=207	=207	=207	=207	=207	=207	=207	=207	=207	=207	=207	=207	=207	=207
!!LO:TX:a:t=Slightly slower ([quarter]=69)
!	!	!LO:TX:a:rj:t=[sord.]  	!	!LO:TX:a:rj:t=[sord.]  	!	!LO:TX:a:rj:t=[sord.]  	!	!	!	!LO:TX:a:t=(2nd) half	!LO:DY:ed=brack	!	!	!	!	!	!	!	!	!	!LO:DY:ed=brack	!	!	!	!
!	!	!LO:TX:rj:t=div.	!	!LO:TX:rj:t=div.	!	!LO:TX:rj:t=div.	!	!	!	!	!	!	!	!	!	!	!	!	!	!	!	!	!	!	!
!	!	!LO:TX:rj:t=Tutti	!	!	!	!	!	!	!	!	!	!	!	!	!	!	!	!	!	!	!	!	!	!	!
1r	.	2.F#X~u [2.d	mp	2.fi~u [2.b-X	mp	2.g~u [2.ee-X	mp	1r	.	8ee-Xi]	p	4r	.	4r	.	1r	.	4r	.	4.ee-Xi])	mp >	1r	.	4r	.
.	.	.	.	.	.	.	.	.	.	8r	.	.	.	.	.	.	.	.	.	.	.	.	.	.	.
!	!	!	!	!	!	!	!	!	!	!	!	!LO:TX:a:t=[(1st) half div.]	!	!LO:TX:a:rj:t= [(1st) half div.]	!	!	!	!	!	!	!	!	!	!	!
!	!	!	!	!	!	!	!	!	!	!	!	!LO:TX:a:t=sord.	!	!LO:TX:rj:a:t=sord.	!	!	!	!	!	!	!	!	!	!	!
.	.	.	.	.	.	.	.	.	.	4r	.	8r	.	8r	.	.	.	8r	.	.	.	.	.	8r	.
!	!	!	!	!	!	!	!	!	!	!	!	!LO:T:n=2:dot	!	!LO:T:n=2:dot	!	!	!	!LO:TX:a:rj:t=(Motor on-low)	!	!	!	!	!	!	!
!	!	!	!	!	!	!	!	!	!	!	!	!	!	!	!	!	!	!LO:TX:a:rj:t=with Ped.	!LO:DY:t=sempre %s (delicate sonority)	!	!	!	!	!	!LO:DY:t= %s  thin tone
.	.	.	.	.	.	.	.	.	.	.	.	[8ccr [8ffr 8ccccyy	p	[8cccr [8fffr 8cccccyy	p	.	.	[8cc [8ccc	p	8r	]	.	.	[8cccc	p
!	!	!	!	!	!	!	!	!	!	!	!	!LO:T:n=2:dot	!	!LO:T:n=2:dot	!	!	!	!	!	!	!	!	!	!	!
.	.	.	.	.	.	.	.	.	.	2r	.	[2ccr_] [2ffr] 2ccccyy	.	[2ccc_r] [2fffr] 2cccccyy	.	.	.	2cc_ 2ccc_	.	2r	.	.	.	2cccc]	.
.	.	4F#~ 4d]	.	4f~ 4b-]	.	4g~ 4ee-]	.	.	.	.	.	.	.	.	.	.	.	.	.	.	.	.	.	.	.
=208	=208	=208	=208	=208	=208	=208	=208	=208	=208	=208	=208	=208	=208	=208	=208	=208	=208	=208	=208	=208	=208	=208	=208	=208	=208
*M3/4	*	*M3/4	*	*M3/4	*	*M3/4	*	*M3/4	*	*M3/4	*	*M3/4	*	*M3/4	*	*M3/4	*	*M3/4	*	*M3/4	*	*M3/4	*	*M3/4	*
!	!	!	!	!	!	!	!	!	!	!	!	!	!	!	!	!	!	!	!	!	!	!	!	!	!
4%3r	.	(2C#X~ 2A	.	(2G#X~ 2e	.	(2en~ 2b	.	4%3r	.	4%3r	.	8ccr] 8ffr] 8ccccyy	.	8cccr] 8fffr] 8cccccyy	.	4%3r	.	8cc] 8ccc]	.	4%3r	.	4%3r	.	4r	.
.	.	.	.	.	.	.	.	.	.	.	.	8r	.	8r	.	.	.	8r	.	.	.	.	.	.	.
!	!	!	!	!	!	!	!	!	!	!	!	!LO:T:n=2:dot	!	!LO:T:n=2:dot	!	!	!	!	!	!	!	!	!	!	!
!	!	!	!	!	!	!	!	!	!	!	!	!	!	!	!	!	!	!	!	!	!	!	!	!	!
.	.	.	.	.	.	.	.	.	.	.	.	[2ccr [2ffr 2ccccyy	.	[2cccr [2fffr 2cccccyy	.	.	.	[2cc [2ccc	.	.	.	.	.	2cccc	.
.	.	4C#~ 4A)	.	4G#~ 4e)	.	4e~ 4b)	.	.	.	.	.	.	.	.	.	.	.	.	.	.	.	.	.	.	.
=209	=209	=209	=209	=209	=209	=209	=209	=209	=209	=209	=209	=209	=209	=209	=209	=209	=209	=209	=209	=209	=209	=209	=209	=209	=209
*M4/4	*	*M4/4	*	*M4/4	*	*M4/4	*	*M4/4	*	*M4/4	*	*M4/4	*	*M4/4	*	*M4/4	*	*M4/4	*	*M4/4	*	*M4/4	*	*M4/4	*
*met(c)	*	*met(c)	*	*met(c)	*	*met(c)	*	*met(c)	*	*met(c)	*	*met(c)	*	*met(c)	*	*met(c)	*	*met(c)	*	*met(c)	*	*met(c)	*	*met(c)	*
!	!	!	!	!LO:TX:t=P:problem:there should be two harmonics markings aligned vertically	!	!	!	!	!	!	!	!	!	!	!	!	!	!	!	!	!	!	!	!	!
1r	.	2.A#X~ [2.d	>	2.do~ [2.ao	>	2.cc#X~ [2.ff	>	1r	.	1r	.	4.ccr] 4.ffr] 4.ccccyy	.	4.cccr] 4.fffr] 4.cccccyy	.	2r	.	4.cc] 4.ccc]	.	1r	.	1r	.	4r	.
.	.	.	.	.	.	.	.	.	.	.	.	.	.	.	.	.	.	.	.	.	.	.	.	8r	.
!	!	!	!	!	!	!	!	!	!	!	!	!LO:T:n=2:dot	!	!LO:T:n=2:dot	!	!	!	!	!	!	!	!	!	!	!
.	.	.	.	.	.	.	.	.	.	.	.	[8ccr [8ffr 8ccccyy	.	[8cccr [8fffr 8cccccyy	.	.	.	[8cc [8ccc	.	.	.	.	.	[8cccc	.
!	!	!	!	!	!	!	!	!	!	!	!	!LO:T:n=2:dot	!	!LO:T:n=2:dot	!	!	!	!	!	!	!	!	!	!	!
.	.	.	.	.	.	.	.	.	.	.	.	[2ccr_] [2ffr] 2ccccyy	.	[2ccc_r] [2fffr] 2cccccyy	.	4r	.	2cc_ 2ccc_	.	.	.	.	.	2cccc]	.
!	!	!	!	!	!	!	!	!	!	!	!	!	!	!	!	!	!LO:DY:t=%s dolce	!	!	!	!	!	!	!	!
.	.	4A#~ 4d]	]	4do~ 4ao]	]	4cc#~ 4ff]	]	.	.	.	.	.	.	.	.	(4ggg#Xu	mp	.	.	.	.	.	.	.	.
!!LO:REH:t=210
=210	=210	=210	=210	=210	=210	=210	=210	=210	=210	=210	=210	=210	=210	=210	=210	=210	=210	=210	=210	=210	=210	=210	=210	=210	=210
*M3/4	*	*M3/4	*	*M3/4	*	*M3/4	*	*M3/4	*	*M3/4	*	*M3/4	*	*M3/4	*	*M3/4	*	*M3/4	*	*M3/4	*	*M3/4	*	*M3/4	*
!	!	!	!	!	!	!	!	!	!	!	!	!	!	!LO:T:n=2:dot	!	!	!	!	!	!	!	!	!	!	!
4%3r	.	2G#X~ [2e	pp	2e~ [2gi	pp	2dd#X~ [2bb	pp	4%3r	.	4%3r	.	4ccr] 4ffr] 4ccccyy	.	4cccr] 4fffr] 4cccccyy	.	4fff#X)	.	4cc] 4ccc]	.	4%3r	.	4%3r	.	4r	.
!	!	!	!	!	!	!	!	!	!	!	!	!LO:T:n=2:dot	!	!LO:T:n=2:dot	!	!	!	!	!	!	!	!	!	!	!
.	.	.	.	.	.	.	.	.	.	.	.	[2ccr [2ffr 2ccccyy	.	[2cccr [2fffr 2cccccyy	.	2eee	.	[2cc [2ccc	.	.	.	.	.	2cccc	.
.	.	4G#~ 4e]	.	4e~ 4g]	.	4dd#~ 4bb]	.	.	.	.	.	.	.	.	.	.	.	.	.	.	.	.	.	.	.
*	*	*clefC4	*	*	*	*	*	*	*	*	*	*	*	*	*	*	*	*	*	*	*	*	*	*	*
=211	=211	=211	=211	=211	=211	=211	=211	=211	=211	=211	=211	=211	=211	=211	=211	=211	=211	=211	=211	=211	=211	=211	=211	=211	=211
!	!	!	!	!	!	!	!	!	!	!	!	!LO:TX:a:t=(1st) half div.	!	!LO:TX:a:t=(1st) half div.	!	!	!	!	!	!	!	!	!	!	!
4%3r	.	2d#X~ [2cc#X	.	2b~ [2dd	.	2aa#X~ [2fff#	.	4%3r	.	4%3r	.	4ccr] 4ffr] 4ccccyy	.	4cccr] 4fffr] 4cccccyy	.	(4.fffn	.	4cc] 4ccc]	.	4%3r	.	4%3r	.	4r	.
!	!	!	!	!	!	!	!	!	!	!	!	!LO:T:n=2:dot	!	!LO:T:n=2:dot	!	!	!	!	!	!	!	!	!	!	!
.	.	.	.	.	.	.	.	.	.	.	.	[2ccr [2ffr 2ccccyy	.	[2cccr [2fffr 2cccccyy	.	.	.	[2cc [2ccc	.	.	.	.	.	2cccc	.
.	.	.	.	.	.	.	.	.	.	.	.	.	.	.	.	4.aai)	.	.	.	.	.	.	.	.	.
.	.	4d#~ 4cc#]	.	4b~ 4dd]	.	4aa#~ 4fff#]	.	.	.	.	.	.	.	.	.	.	.	.	.	.	.	.	.	.	.
=212	=212	=212	=212	=212	=212	=212	=212	=212	=212	=212	=212	=212	=212	=212	=212	=212	=212	=212	=212	=212	=212	=212	=212	=212	=212
4%3r	.	2fn~ [2g#X	.	2f~ [2a	.	2gg~ni [2eee	.	4%3r	.	4%3r	.	4.ccr] 4.ffr] 4.ccccyy	.	4.cccr] 4.fffr] 4.cccccyy	.	2.cc#X	.	4.cc] 4.ccc]	.	4%3r	.	4%3r	.	4r	.
.	.	.	.	.	.	.	.	.	.	.	.	.	.	.	.	.	.	.	.	.	.	.	.	8r	.
!	!	!	!	!	!	!	!	!	!	!	!	!LO:T:n=2:dot	!	!LO:T:n=2:dot	!	!	!	!	!	!	!	!	!	!	!
.	.	.	.	.	.	.	.	.	.	.	.	[4.ccr [4.ffr 4.ccccyy	.	[4.cccr [4.fffr 4.cccccyy	.	.	.	[4.cc [4.ccc	.	.	.	.	.	4.cccc	.
.	.	4f~ 4g#]	.	4f~ 4a]	.	4gg~ 4eee]	.	.	.	.	.	.	.	.	.	.	.	.	.	.	.	.	.	.	.
=213	=213	=213	=213	=213	=213	=213	=213	=213	=213	=213	=213	=213	=213	=213	=213	=213	=213	=213	=213	=213	=213	=213	=213	=213	=213
!	!	!LO:TX:a:t=half	!	!LO:TX:a:t=half	!	!LO:TX:a:t=half	!	!	!	!LO:TX:a:t=half sord.	!	!	!	!	!	!LO:TX:a:B:t=always softer	!	!	!	!	!	!	!	!LO:TX:a:B:t=always softer	!
4%3r	.	[2f#X~	p	[2dd~o	p	[2ffn~	p	4%3r	.	[2bb-X~	p	4ccr] 4ffr] 4ccccyy	.	4cccr] 4fffr] 4cccccyy	.	4%3r	.	4cc] 4ccc]	.	4%3r	.	4%3r	.	4r	.
!	!	!	!	!	!	!	!	!	!	!	!	!LO:T:n=2:dot	!	!LO:T:n=2:dot	!	!	!	!	!	!	!	!	!	!	!
.	.	.	.	.	.	.	.	.	.	.	.	[2ccr [2ffr 2ccccyy	.	[2cccr [2fffr 2cccccyy	.	.	.	[2cc [2ccc	.	.	.	.	.	2cccc	.
.	.	4f#~]	.	4dd~o]	.	4ff~]	.	.	.	4bb-~]	.	.	.	.	.	.	.	.	.	.	.	.	.	.	.
=214	=214	=214	=214	=214	=214	=214	=214	=214	=214	=214	=214	=214	=214	=214	=214	=214	=214	=214	=214	=214	=214	=214	=214	=214	=214
4%3r	.	[2ao~	.	[2cc#X~	.	[2gg#X~	.	4%3r	.	[2bbn~	.	8ccr] 8ffr] 8ccccyy	.	8cccr] 8fffr] 8cccccyy	.	4r	.	8cc] 8ccc]	.	4%3r	.	4%3r	.	8r	.
!	!	!	!	!	!	!	!	!	!	!	!	!LO:T:n=2:dot	!	!LO:T:n=2:dot	!	!	!	!	!	!	!	!	!	!	!
.	.	.	.	.	.	.	.	.	.	.	.	[4.ccr [4.ffr 4.ccccyy	.	[4.cccr [4.fffr 4.cccccyy	.	.	.	[4.cc [4.ccc	.	.	.	.	.	4.cccc	.
.	.	.	.	.	.	.	.	.	.	.	.	.	.	.	.	4r	.	.	.	.	.	.	.	.	.
.	.	4ao~]	.	4cc#~]	.	4gg#~]	.	.	.	4bb~]	.	8ccrL] 8ffr] 8ccccyy	.	8cccrL] 8fffr] 8cccccyy	.	(4eeeu	.	8ccL] 8ccc]	.	.	.	.	.	8r	.
!	!	!	!	!	!	!	!	!	!	!	!	!LO:T:n=2:dot	!	!LO:T:n=2:dot	!	!	!	!	!	!	!	!	!	!	!
.	.	.	.	.	.	.	.	.	.	.	.	[8ccrJ [8ffr 8ccccyy	.	[8cccrJ [8fffr 8cccccyy	.	.	.	[8ccJ [8ccc	.	.	.	.	.	[8cccc	.
!!LO:REH:t=215
=215	=215	=215	=215	=215	=215	=215	=215	=215	=215	=215	=215	=215	=215	=215	=215	=215	=215	=215	=215	=215	=215	=215	=215	=215	=215
!	!	!LO:TX:a:t=quarter	!	!LO:TX:a:t=quarter	!	!LO:TX:a:t=quarter	!	!	!	!	!	!	!	!	!	!	!	!	!	!	!	!	!	!	!
4%3r	.	[2a#X~	.	[2dd~	.	[2aa~	.	4%3r	.	[2fff~	.	4ccr] 4ffr] 4ccccyy	.	4cccr] 4fffr] 4cccccyy	.	4ddd)	.	4cc] 4ccc]	.	4%3r	.	4%3r	.	8cccc]	.
.	.	.	.	.	.	.	.	.	.	.	.	.	.	.	.	.	.	.	.	.	.	.	.	8r	.
!	!	!	!	!	!	!	!	!	!	!	!	!LO:T:n=2:dot	!	!LO:T:n=2:dot	!	!	!	!	!	!	!	!	!	!	!
.	.	.	.	.	.	.	.	.	.	.	.	[2ccr [2ffr 2ccccyy	.	[2cccr [2fffr 2cccccyy	.	2ccc	.	[2cc [2ccc	.	.	.	.	.	2cccc	.
.	.	4a#~]	.	4dd~]	.	4aa~]	.	.	.	4fff~]	.	.	.	.	.	.	.	.	.	.	.	.	.	.	.
=216	=216	=216	=216	=216	=216	=216	=216	=216	=216	=216	=216	=216	=216	=216	=216	=216	=216	=216	=216	=216	=216	=216	=216	=216	=216
*	*	*	*	*	*	*	*	*	*	*8va	*	*	*	*	*	*	*	*	*	*	*	*	*	*	*
4r	.	[2g#X~	.	[2ee~	.	[2ddd#X~	.	4%3r	.	[2bbb~	.	4.ccr] 4.ffr] 4.ccccyy	.	4.cccr] 4.fffr] 4.cccccyy	.	4ccc#X	.	4.cc] 4.ccc]	.	4%3r	.	4%3r	.	4r	.
!LO:TX:a:t=1. Solo (arco)	!	!	!	!	!	!	!	!	!	!	!	!	!	!	!	!	!	!	!	!	!	!	!	!	!
4r	.	.	.	.	.	.	.	.	.	.	.	.	.	.	.	2ff	> ]	.	.	.	.	.	.	8r	.
!	!	!	!	!	!	!	!	!	!	!	!	!LO:T:n=2:dot	!	!LO:T:n=2:dot	!	!	!	!	!	!	!	!	!	!	!
.	.	.	.	.	.	.	.	.	.	.	.	[4.ccr [4.ffr 4.ccccyy	.	[4.cccr [4.fffr 4.cccccyy	.	.	.	[4.cc [4.ccc	.	.	.	.	.	4.cccc	.
*	*	*	*	*	*	*	*	*	*	*	*	*	*	*	*	*	*	*	*	*	*	*	*	*	*
!	!LO:DY:t=%s dolce, legato	!	!	!	!	!	!	!	!	!	!	!	!	!	!	!	!	!	!	!	!	!	!	!	!
4GG#X	mp	4g#~]	.	4ee~]	.	4ddd#~]	.	.	.	4bbb~]	.	.	.	.	.	.	.	.	.	.	.	.	.	.	.
=217	=217	=217	=217	=217	=217	=217	=217	=217	=217	=217	=217	=217	=217	=217	=217	=217	=217	=217	=217	=217	=217	=217	=217	=217	=217
*M4/4	*	*M4/4	*	*M4/4	*	*M4/4	*	*M4/4	*	*M4/4	*	*M4/4	*	*M4/4	*	*M4/4	*	*M4/4	*	*M4/4	*	*M4/4	*	*M4/4	*
*met(c)	*	*met(c)	*	*met(c)	*	*met(c)	*	*met(c)	*	*met(c)	*	*met(c)	*	*met(c)	*	*met(c)	*	*met(c)	*	*met(c)	*	*met(c)	*	*met(c)	*
*	*	*	*	*	*	*	*	*	*	*X8va	*	*	*	*	*	*	*	*	*	*	*	*	*	*	*
!	!	!	!	!LO:TX:a:rj:t=div.	!	!LO:TX:rj:a:t=div.	!	!LO:TX:a:rj:t=2 Soli	!	!LO:TX:a:rj:t=2 Soli	!	!LO:TX:a:t=halfdiv.	!	!	!	!	!	!	!	!	!	!	!	!	!
!	!	!LO:TX:a:rj:t=2 Soli	!	!LO:TX:a:rj:t=4 Soli	!	!LO:TX:rj:a:t=4 Soli	!	!	!	!	!	!	!	!	!	!	!	!	!	!	!	!	!	!	!
4AA#X	.	2.d#Xu	pp	2.bu 2.ddni	pp	2.aa#Xu 2.fff#X	pp	2.cc#Xur 2.ff#Xr 2.cccc#yy	pp	2.ff#Xu 2.bb	pp	2ccr] 2ffr] 2ccccyy	.	2cccr] 2fffr] 2cccccyy	.	[1b	p	2cc] 2ccc]	.	1r	.	1r	.	2r	.
4BB#X	.	.	.	.	.	.	.	.	.	.	.	.	.	.	.	.	.	.	.	.	.	.	.	.	.
!	!	!	!	!	!	!	!	!	!	!	!	!LO:TX:a:t=2 Soli	!	!LO:TX:a:t=2 Soli	!	!	!	!	!	!	!	!	!	!	!
!	!	!	!	!	!	!	!	!	!	!	!	!LO:T:n=2:dot	!	!LO:T:n=2:dot	!	!	!	!	!	!	!	!	!	!	!
4C#X	.	.	.	.	.	.	.	.	.	.	.	[2ccr [2ffr 2ccccyy	pp	[2cccr [2fffr 2cccccyy	pp	.	.	[2cc [2ccc	pp	.	.	.	.	2cccc	pp
!	!	!	!	!	!	!	!	!LO:T:n=2:dot	!	!LO:T:n=2:dot	!	!	!	!	!	!	!	!	!	!	!	!	!	!	!
4BB	.	[4d#v	.	[4bv [4dd	.	[4aa#v [4fff#	.	[4cc#v [4ff#	.	[4ff#v [4bb	.	.	.	.	.	.	.	.	.	.	.	.	.	.	.
*clefC4	*	*	*	*	*	*	*	*	*	*	*	*	*	*	*	*	*	*	*	*	*	*	*	*	*
=218	=218	=218	=218	=218	=218	=218	=218	=218	=218	=218	=218	=218	=218	=218	=218	=218	=218	=218	=218	=218	=218	=218	=218	=218	=
2Go	.	2.d#]	.	2.b] 2.dd]	.	2.aa#] 2.fff#]	.	2.cc#] 2.ff#]	.	2.ff#] 2.bb]	.	4.ccr] 4.ffr] 4.ccccyy	.	4.cccr] 4.fffr] 4.cccccyy	.	1b_	.	4.cc] 4.ccc]	.	1r	.	1r	.	4r	.
.	.	.	.	.	.	.	.	.	.	.	.	.	.	.	.	.	.	.	.	.	.	.	.	8r	.
!	!	!	!	!	!	!	!	!	!	!	!	!LO:T:n=2:dot	!	!LO:T:n=2:dot	!	!	!	!	!	!	!	!	!	!	!
.	.	.	.	.	.	.	.	.	.	.	.	[8ccr [8ffr 8ccccyy	ppp	[8cccr [8fffr 8cccccyy	ppp	.	.	[8cc [8ccc	ppp	.	.	.	.	[8cccc	ppp >
!LO:T:n=2:dot	!	!	!	!	!	!	!	!	!	!	!	!	!	!	!	!	!	!	!	!	!	!	!	!	!
[2G#rX [2d#Xr 2dd#yy	.	.	.	.	.	.	.	.	.	.	.	2ccr] 2ffr] 2ccccyy	.	2cccr] 2fffr] 2cccccyy	.	.	.	[2cc] [2ccc]	.	.	.	.	.	2cccc]	.
!	!	!	!	!	!	!	!	!LO:T:n=2:dot	!	!LO:T:n=2:dot	!	!	!	!	!	!	!	!	!	!	!	!	!	!	!
.	.	[4d#Xu	ppp	[4bu [4dd	ppp	[4aa#Xu [4fff#X	ppp	[4cc#Xu [4ff#	ppp	[4ff#Xu [4bb	ppp	.	.	.	.	.	.	.	.	.	.	.	.	.	]
=219	=219	=219	=219	=219	=219	=219	=219	=219	=219	=219	=219	=219	=219	=219	=219	=219	=219	=219	=219	=219	=219	=219	=219	=219	=219
!LO:T:n=2:dot	!	!	!	!	!	!	!	!LO:T:n=2:dot	!	!LO:T:n=2:dot	!	!LO:T:n=2:dot	!	!LO:T:n=2:dot	!	!	!	!	!	!	!	!	!	!	!
[2.G#r;_] [2.d#Xr] 2.dd#yy	>	2.d#;_	>	2.b;_ 2.dd_	>	2.aa#;_ 2.fff#_	>	[2.cc#;_] [2.ff#]	>	[2.ff#;_] [2.bb]	>	[2.ccr; [2.ffr 2.ccccyy	>	[2.cccr; [2.fffr 2.cccccyy	>	2.b;_	>	[2.cc;] [2.ccc]	.	1r	.	2r;	.	1r	.
.	.	.	.	.	.	.	.	.	.	.	.	.	.	.	.	.	.	.	.	.	.	4r	.	.	.
!	!	!	!	!	!	!	!	!	!	!	!	!	!	!	!	!	!	!	!	!	!	!LO:TX:a:t=Solo	!LO:DY:t=%s freely [poetic]	!	!
8G#r] 8d#r] dd#yy	]	8d#]	]	8b] 8dd]	]	8aa#] 8fff#]	]	8cc#] 8ff#]	]	8ff#] 8bb]	]	8ccr] 8ffr] 8ccccyy	]	8cccr] 8fffr] 8cccccyy	]	8b]	]	8cc] 8ccc]	.	.	.	(8ff#XL	mp	.	.
8r	.	8r	.	8r	.	8r	.	8r	.	8r	.	8r	.	8r	.	8r	.	8r	.	.	.	8aa#XJ	.	.	.
=220	=	=	=	=	=	=	=	=	=	=	=	=	=	=	=	=	=	=	=	=	=	=	=	=	=
*-	*-	*-	*-	*-	*-	*-	*-	*-	*-	*-	*-	*-	*-	*-	*-	*-	*-	*-	*-	*-	*-	*-	*-	*-	*-
!!!system-decoration: [(s1,s2,s3)][(s4)][(s5,s6,s7,s8,s9,s10,s11,s12,s13)]
!!!RDF**kern: i = editorial accidental, paren
!!!EED:Jason Lee
!!!EEV:2021/09/15
!!!EED2: Gabriella Vici
!!!Suter_Work_ID: Cop-43
!!!Suter_Example_Number: 725
!!!Suter_Example_ID: Cop-43/37-39/207-219
!!!Premiere_Location: Ann Arbor,United States
!!!Other_Tsigs: 3/4,4/4,3/4,4/4
!!!Full_Unit_Duration: 13:22
!!!First_Publication_Year: 1968
!!!First_Public_Performance_Year: 1967
!!!Example_Total_Measures: 13
!!!Example_Timestamp_Duration: 54
!!!Example_Start_Tsig_Type: changing
!!!Example_Start_Tsig_Mean_Beat_Rate: 69
!!!Example_Start_Tsig_Beat_Rate: 69
!!!Example_Start_Tsig_Beat: quarter
!!!Example_Start_Tsig: 4/4
!!!Example_Start_Timestamp: 9:30
!!!Example_Start_Tempo_Expression: Slightly slower
!!!Example_Start_Notated_Beat_Rate: 69
!!!Example_Start_Notated_Beat: quarter
!!!Example_Start_Measure: 207
!!!Example_Metadata_Validated: Y
!!!Example_End_Timestamp: 10:24
!!!Example_End_Measure: 219
!!!Example_Dataset: T
!!!Editorial_Comments:
!!!Death_Place: North Tarrytown,United States
!!!Death_Date: 2-Dec-1990
!!!Changing_Tsig: yes
!!!Birth_Place: Brooklyn,United States
!!!Birth_Date: 14-Nov-1900
!!!Audio_Example_Quarter_Note_Tempo:
!!!Audio_Example_Duration:
!!!EEV2: 2022/04/07
